X: 39307
T: Taladh Chriosd
R: waltz
M: 3/4
K: Dmixolydian
D4E2|F4G2|A4G2|D6|F3ED2|E4A2|G4A2|C6|
D4E2|F4G2|A4G2|D6|D3CA,2|C4E2|D6|D6|

